X:3
T:K.V. 487/3
M:3/4
L:1/16
K:F major
V:1
F8 A4 | {A/2}(G2FG) F2c2 {d/2}(c2BA) | G8 B4 | {B/2}(A2GAG4) z4 | c8 {B/2}(B2AG) |
V:2
F,4A,4F,4 | C4 A,4 z4 [K:clef=bass] | C,4E,4C,4 | F,4 C,2[K:clef=treble]C2 E2C2 | F4 F,4 A,4 |
V:1
(EGFA GBAc) B2 z2 | (AcBA Bcde) (fc)AF | (EGFA GBAc) B2 z2 | (A2c2) f2e2 d2c2 | (=B8c2).G2 | (A2B2) c4 (=B2AB) | c4 z4 z4 ::
V:2
C4 z4 z CDE | F6 C2 A,2F,2 | C4 z4 z CDE | F12 | F2D2 G2F2 E4 | F4 G4 G4 | C4 D,4 z4 ::
V:1
+p+ (c2G2) G4 A4 | (c2B2) B4>G4 | +mf+ (A2c2) d2c2 B2A2 | (c2>A2) G4 z4 | +p+ (c2G2) G4 A4 | (c2B2) B6 G2 |
V:2
+p+ C,2C2 E2C2 F2C2 | G2C2 G2C2 D2E2 | +mf+ F2A2 B2A2 G2F2 | (A2>F2) C2C2 C,2C2 | +p+ C,4 z2 C2 F2C2 | G2C2 G2C2 D2E2 |
V:1
+mf+ Acde (fg)ab c'2A2 | c2>A2 G4 z4 | +p+ c8 {B/2}(A2GF) | (EGFA GBAc) B2 z2 | (Ac)dc fedc BAGF |
V:2
F4 z4 z2 F2 | A2>F2 E2C2 C,2 z2 | +p+ F,4A,4F,4 | C,4 z4 z CDE | F4A4F4 |
V:1
(EGFA GBAc) B2 z2 | +mf+ A12 | (Bc)(Bc) (de)(de) f2zc | {e/2}(d2cB) A4 G4 |1 F4 z4 z4 :|]2 F4 z4 z4 |]
V:2
C4 C,4 z CDE | +mf+ FF,A,C F2F2 _E2E2 | D4 B4 A2zA | {c/2}(B2AG) F4 C4 |1 F,FCA F,4 z4 :|]2 F,4 z4 z4 |]

